X:1
T:Franconia (Hastings), 11.11.11.11
T:Franconia (Hastings), 11.11.11.11
T:Thomas Hastings (1784-1872)
T:Public Domain Courtesy of the Cyber Hymnal™
C:Thomas Hastings (1784-1872)
Z:Public Domain
Z:Courtesy of the Cyber Hymnal™
%%score ( 1 2 ) ( 3 4 )
L:1/8
Q:1/4=110
M:3/4
K:Eb
V:1 treble 
V:2 treble 
V:3 bass 
V:4 bass 
V:1
 [GB]3 [GB] [FA][EG] | [EG]2 [DF]4 | [FA]3 [FA] [EG][DF] | [EG]6 | [GB]3 [GB] [Ac][Ad] | %5
 [Ge]2 [GB]4 | [GB][FA] [EG]2 [DF]2 | E6 | [Fd]3 [Fd] [Fc][FB] x/ | [FB]2 [F=A]4 | %10
 [Ec]3 [Ec] [DB][C=A] | [DB]6 | [GB]3 [GB] [Ac][Ad] | [Ge]2 [GB]4 | [B,E][EF] [EG]2 [DF]2 | E6 |] %16
V:2
 x6 | x6 | x6 | x6 | x6 | x6 | x6 | E6 | x13/2 | x6 | x6 | x6 | x6 | x6 | x6 | E6 |] %16
V:3
 [E,B,]3 [B,,B,] [D,B,][E,B,] | [B,,B,]2 [B,,B,]4 | [B,,D]3 [B,,B,] [B,,B,][B,,B,] | [E,B,]6 | %4
 [E,E]3 [E,E] [A,E][F,B,] | [E,B,]2 [E,E]4 | [E,E]A, B,2 [B,,A,]2 | [E,G,]6 | B,3 B,3/2 E[B,D] | %9
 [F,D]2 [F,C]4 | [F,=A,]3 [F,A,] [F,B,]F, | [B,,B,]6 | [E,B,]3 [E,E] [E,E][E,B,] | [E,B,]2 [E,E]4 | %14
 G,[A,C] B,2 [B,,A,]2 | [E,G,]6 |] %16
V:4
 x6 | x6 | x6 | x6 | x6 | x6 | x2 B,2 x2 | x6 | B,3 B, =A,2 x/ | x6 | x6 | x6 | x6 | x6 | %14
 x2 B,2 x2 | x6 |] %16

